flaticon/fitness/timer.svg

<svg xmlns="http://www.w3.org/2000/svg" width="32" height="32" viewBox="0 0 24 24">
    <path d="M 12 4.800781 C 7.160156 4.800781 3.199219 8.761719 3.199219 13.601562 C 3.199219 15.980469 4.15625 18.144531 5.707031 19.734375 C 5.722656 19.757812 5.738281 19.777344 5.761719 19.800781 C 5.78125 19.824219 5.804688 19.839844 5.828125 19.859375 C 7.421875 21.425781 9.601562 22.398438 12 22.398438 C 16.839844 22.398438 20.800781 18.441406 20.800781 13.601562 C 20.800781 8.761719 16.839844 4.800781 12 4.800781 Z M 18.800781 14 L 19.988281 14 C 19.894531 15.902344 19.128906 17.632812 17.921875 18.964844 L 17.078125 18.121094 C 16.921875 17.960938 16.679688 17.960938 16.519531 18.121094 C 16.359375 18.28125 16.359375 18.519531 16.519531 18.679688 L 17.363281 19.523438 C 16.035156 20.726562 14.300781 21.496094 12.398438 21.589844 L 12.398438 20.398438 C 12.398438 20.160156 12.238281 20 12 20 C 11.761719 20 11.601562 20.160156 11.601562 20.398438 L 11.601562 21.589844 C 9.6875 21.496094 7.949219 20.71875 6.617188 19.503906 L 7.441406 18.679688 C 7.601562 18.519531 7.601562 18.28125 7.441406 18.121094 C 7.28125 17.960938 7.039062 17.960938 6.878906 18.121094 L 6.058594 18.941406 C 4.863281 17.617188 4.105469 15.890625 4.011719 14 L 5.199219 14 C 5.398438 14 5.601562 13.839844 5.601562 13.601562 C 5.601562 13.359375 5.441406 13.199219 5.199219 13.199219 L 4.011719 13.199219 C 4.105469 11.296875 4.871094 9.566406 6.078125 8.238281 L 6.921875 9.078125 C 7 9.160156 7.078125 9.199219 7.199219 9.199219 C 7.28125 9.199219 7.398438 9.160156 7.480469 9.078125 C 7.640625 8.921875 7.640625 8.679688 7.480469 8.519531 L 6.636719 7.675781 C 7.964844 6.472656 9.699219 5.703125 11.601562 5.609375 L 11.601562 6.800781 C 11.601562 7.039062 11.761719 7.199219 12 7.199219 C 12.199219 7.199219 12.398438 7.039062 12.398438 6.800781 L 12.398438 5.609375 C 14.300781 5.703125 16.035156 6.472656 17.363281 7.675781 L 16.519531 8.519531 C 16.359375 8.679688 16.359375 8.921875 16.519531 9.078125 C 16.601562 9.160156 16.679688 9.199219 16.800781 9.199219 C 16.921875 9.199219 17 9.160156 17.078125 9.078125 L 17.921875 8.238281 C 19.128906 9.566406 19.894531 11.296875 19.988281 13.199219 L 18.800781 13.199219 C 18.558594 13.199219 18.398438 13.359375 18.398438 13.601562 C 18.398438 13.839844 18.558594 14 18.800781 14 Z M 18.800781 14"/>
    <path d="M 22 7.238281 C 22.320312 7.238281 22.640625 7.121094 22.878906 6.878906 C 23.359375 6.398438 23.359375 5.601562 22.878906 5.121094 L 21.28125 3.519531 C 20.800781 3.039062 20 3.039062 19.519531 3.519531 C 19.128906 3.910156 19.058594 4.511719 19.300781 4.980469 L 18.65625 5.625 C 17.238281 4.4375 15.503906 3.621094 13.601562 3.324219 L 13.601562 2.398438 L 14.359375 2.398438 C 14.839844 2.398438 15.199219 2.039062 15.199219 1.601562 L 15.199219 0.839844 C 15.199219 0.359375 14.839844 0 14.359375 0 L 9.601562 0 C 9.160156 0 8.800781 0.359375 8.800781 0.839844 L 8.800781 1.558594 C 8.800781 2.039062 9.160156 2.398438 9.601562 2.398438 L 10.398438 2.398438 L 10.398438 3.324219 C 8.507812 3.621094 6.78125 4.429688 5.367188 5.605469 L 4.714844 4.953125 C 4.941406 4.488281 4.863281 3.902344 4.480469 3.519531 C 4 3.039062 3.199219 3.039062 2.71875 3.519531 L 1.121094 5.121094 C 0.640625 5.601562 0.640625 6.398438 1.121094 6.878906 C 1.359375 7.121094 1.679688 7.238281 2 7.238281 C 2.285156 7.238281 2.566406 7.144531 2.796875 6.957031 L 3.484375 7.644531 C 2.300781 9.335938 1.601562 11.390625 1.601562 13.601562 C 1.601562 19.320312 6.28125 24 12 24 C 17.71875 24 22.398438 19.320312 22.398438 13.601562 C 22.398438 11.398438 21.707031 9.355469 20.53125 7.667969 L 21.226562 6.972656 C 21.449219 7.152344 21.726562 7.238281 22 7.238281 Z M 20.078125 4.078125 C 20.160156 4 20.28125 3.960938 20.398438 3.960938 C 20.519531 3.960938 20.640625 4 20.71875 4.078125 L 22.320312 5.679688 C 22.480469 5.878906 22.519531 6.160156 22.320312 6.320312 C 22.121094 6.480469 21.839844 6.480469 21.679688 6.320312 L 21.609375 6.246094 C 21.585938 6.203125 21.558594 6.160156 21.519531 6.121094 L 20.121094 4.71875 C 20.09375 4.695312 20.066406 4.671875 20.035156 4.65625 C 19.921875 4.460938 19.9375 4.222656 20.078125 4.078125 Z M 19.800781 5.558594 L 20.640625 6.398438 L 20.039062 7 C 19.800781 6.679688 19.519531 6.398438 19.238281 6.121094 Z M 9.601562 0.800781 L 14.398438 0.839844 L 14.398438 1.558594 C 14.398438 1.601562 14.398438 1.601562 14.359375 1.601562 L 9.601562 1.558594 Z M 11.199219 2.398438 L 12.800781 2.398438 L 12.800781 3.230469 C 12.535156 3.210938 12.269531 3.199219 12 3.199219 C 11.730469 3.199219 11.464844 3.210938 11.199219 3.230469 Z M 4.199219 5.558594 L 4.761719 6.121094 C 4.480469 6.398438 4.199219 6.679688 3.960938 7 L 3.359375 6.398438 Z M 1.679688 6.320312 C 1.519531 6.121094 1.519531 5.839844 1.679688 5.679688 L 3.28125 4.078125 C 3.359375 4 3.480469 3.960938 3.601562 3.960938 C 3.71875 3.960938 3.839844 4 3.921875 4.078125 C 4.078125 4.28125 4.078125 4.558594 3.921875 4.71875 L 2.320312 6.320312 C 2.160156 6.480469 1.839844 6.480469 1.679688 6.320312 Z M 12 23.199219 C 6.71875 23.199219 2.398438 18.878906 2.398438 13.601562 C 2.398438 11.460938 3.109375 9.476562 4.304688 7.875 C 4.324219 7.863281 4.34375 7.851562 4.359375 7.839844 C 4.71875 7.320312 5.160156 6.878906 5.640625 6.441406 C 5.65625 6.421875 5.671875 6.40625 5.683594 6.386719 C 7.085938 5.15625 8.847656 4.324219 10.785156 4.078125 C 10.804688 4.078125 10.820312 4.078125 10.839844 4.078125 C 11.640625 4 12.359375 4 13.160156 4.078125 L 13.199219 4.078125 C 13.207031 4.078125 13.214844 4.078125 13.226562 4.078125 C 17.933594 4.683594 21.601562 8.734375 21.601562 13.601562 C 21.601562 18.878906 17.28125 23.199219 12 23.199219 Z M 12 23.199219"/>
    <path d="M 12.398438 12.050781 L 12.398438 8.398438 C 12.398438 8.160156 12.238281 8 12 8 C 11.761719 8 11.601562 8.160156 11.601562 8.398438 L 11.601562 12.050781 C 10.910156 12.230469 10.398438 12.859375 10.398438 13.601562 C 10.398438 14.480469 11.121094 15.199219 12 15.199219 C 12.878906 15.199219 13.601562 14.480469 13.601562 13.601562 C 13.601562 12.859375 13.089844 12.230469 12.398438 12.050781 Z M 12 14.398438 C 11.558594 14.398438 11.199219 14.039062 11.199219 13.601562 C 11.199219 13.160156 11.558594 12.800781 12 12.800781 C 12.441406 12.800781 12.800781 13.160156 12.800781 13.601562 C 12.800781 14.039062 12.441406 14.398438 12 14.398438 Z M 12 14.398438"/>
</svg>

<svg xmlns="http://www.w3.org/2000/svg" width="32" height="32" viewBox="0 0 24 24">
    <path d="M12 4.8c-4.84 0-8.8 3.962-8.8 8.802 0 2.378.956 4.543 2.507 6.132a.41.41 0 0 0 .055.067c.02.023.043.039.066.058A8.787 8.787 0 0 0 12 22.4c4.84 0 8.8-3.958 8.8-8.797 0-4.84-3.96-8.801-8.8-8.801zm6.8 9.2h1.188a7.963 7.963 0 0 1-2.066 4.965l-.844-.844a.385.385 0 0 0-.558 0 .385.385 0 0 0 0 .559l.843.843a7.976 7.976 0 0 1-4.965 2.067v-1.192c0-.238-.16-.398-.398-.398-.238 0-.398.16-.398.398v1.192a7.965 7.965 0 0 1-4.985-2.086l.824-.824a.385.385 0 0 0 0-.559.39.39 0 0 0-.562 0l-.82.82A7.955 7.955 0 0 1 4.012 14h1.187c.2 0 .403-.16.403-.398 0-.243-.16-.403-.403-.403H4.012a7.944 7.944 0 0 1 2.066-4.96l.844.84a.348.348 0 0 0 .277.12c.082 0 .2-.039.281-.12a.385.385 0 0 0 0-.56l-.843-.843a7.976 7.976 0 0 1 4.965-2.067v1.192c0 .238.16.398.398.398a.4.4 0 0 0 .398-.398V5.609a7.976 7.976 0 0 1 4.965 2.067l-.843.844a.385.385 0 0 0 0 .558c.082.082.16.121.28.121.122 0 .2-.039.278-.12l.844-.84a7.944 7.944 0 0 1 2.066 4.96h-1.187c-.242 0-.403.16-.403.403 0 .238.16.398.403.398zm0 0"/>
    <path d="M22 7.238c.32 0 .64-.117.879-.36.48-.48.48-1.276 0-1.757L21.28 3.52a1.257 1.257 0 0 0-1.761 0c-.391.39-.461.992-.22 1.46l-.644.645a10.355 10.355 0 0 0-5.054-2.3v-.927h.757c.48 0 .84-.359.84-.796V.84a.82.82 0 0 0-.84-.84H9.602C9.16 0 8.8.36 8.8.84v.719c0 .48.36.84.8.84h.797v.925a10.387 10.387 0 0 0-5.03 2.281l-.653-.652A1.26 1.26 0 0 0 4.48 3.52a1.257 1.257 0 0 0-1.761 0L1.12 5.12c-.48.48-.48 1.277 0 1.758.238.242.559.36.879.36.285 0 .566-.094.797-.282l.687.688a10.362 10.362 0 0 0-1.882 5.957C1.602 19.32 6.282 24 12 24c5.719 0 10.398-4.68 10.398-10.398 0-2.204-.691-4.247-1.867-5.934l.696-.695c.222.18.5.265.773.265zm-1.922-3.16a.47.47 0 0 1 .32-.117c.122 0 .243.039.32.117L22.32 5.68c.16.199.2.48 0 .64-.199.16-.48.16-.64 0l-.07-.074a.53.53 0 0 0-.09-.125L20.12 4.72a.438.438 0 0 0-.086-.063c-.113-.195-.098-.433.043-.578zm-.277 1.48l.84.84-.602.602c-.238-.32-.52-.602-.8-.879zM9.6.802l4.797.039v.719c0 .043 0 .043-.039.043l-4.757-.043zM11.2 2.398h1.602v.832a10.888 10.888 0 0 0-1.602 0zm-7 3.16l.563.563c-.282.277-.563.559-.801.879l-.602-.602zm-2.52.762c-.16-.199-.16-.48 0-.64l1.602-1.602a.456.456 0 0 1 .32-.117.47.47 0 0 1 .32.117c.157.203.157.48 0 .64l-1.6 1.602c-.16.16-.481.16-.641 0zM12 23.2c-5.281 0-9.602-4.321-9.602-9.598 0-2.141.711-4.125 1.907-5.727.02-.012.039-.023.054-.035.36-.52.801-.961 1.282-1.399.015-.02.03-.035.043-.054a9.562 9.562 0 0 1 5.101-2.309h.055c.8-.078 1.52-.078 2.32 0h.067c4.707.606 8.375 4.656 8.375 9.524 0 5.277-4.32 9.597-9.602 9.597zm0 0"/>
    <path d="M12.398 12.05V8.399c0-.238-.16-.398-.398-.398-.238 0-.398.16-.398.398v3.653a1.608 1.608 0 0 0-1.204 1.55c0 .88.723 1.598 1.602 1.598.879 0 1.602-.719 1.602-1.597 0-.743-.512-1.372-1.204-1.551zM12 14.399c-.441 0-.8-.359-.8-.796a.802.802 0 0 1 1.6 0c0 .437-.359.796-.8.796zm0 0"/>
</svg>
